Sources/FrostedUI/Resources/Icons.xcassets/facebookFilledSize12.imageset/facebook-filled-size-12.svg

<svg
  width="12"
  height="12"
  viewBox="0 0 12 12"
  fill="none"
  xmlns="http://www.w3.org/2000/svg"
  data-fui-icon="true"
>
  <path
    d="M4.79202 10.853V7.52805H3.76008V6H4.79202V5.34165C4.79202 3.63972 5.562 2.85167 7.232 2.85167C7.54815 2.85167 8.09395 2.91361 8.31815 2.97555V4.35972C8.20005 4.34778 7.99395 4.34166 7.74005 4.34166C6.92005 4.34166 6.60395 4.65167 6.60395 5.4597V6H8.23815L7.95815 7.5278H6.6062V10.9639C9.08185 10.6639 11 8.556 11 6C11 3.23861 8.7614 1 6 1C3.23861 1 1 3.23861 1 6C1 8.34495 2.61406 10.3126 4.79202 10.853Z"
    fill="currentColor"
  />
</svg>

<svg xmlns="http://www.w3.org/2000/svg" width="12" height="12" fill="none" data-fui-icon="true" viewBox="0 0 12 12"><path fill="currentColor" d="M4.792 10.853V7.528H3.76V6h1.032v-.658c0-1.702.77-2.49 2.44-2.49.316 0 .862.062 1.086.124V4.36a7 7 0 0 0-.578-.018c-.82 0-1.136.31-1.136 1.118V6h1.634l-.28 1.528H6.606v3.436a5 5 0 1 0-1.814-.11"/></svg>
